X: 31436
T: Paddy Sean Nancy's
R: reel
M: 4/4
K: Gmajor
|:D3c B2Ac|BG~G2 AEGE|D3c B3c|1 dBAG EGGE:|2 dBAG EGGA||
|:Bd~d2 edgd|B~d2B AGEG|Bd~d2 efge|1 dBAc BGGA:|2 dBAc BGGE||

